assets/textures/mountain-shape.svg

<svg width="394" height="34" viewBox="0 0 394 34" fill="none" xmlns="http://www.w3.org/2000/svg">
<path d="M394 31.0016C389 31 385.211 15.0984 381.555 14.0272C377.743 12.9107 373.408 17.2136 368.34 17.2136C361.257 17.2136 359.396 13.3464 356.143 15.4434C354.228 16.678 353.009 26.237 346.942 26.6092C344.019 26.7907 340.326 23.3321 335.726 23.1051C331.721 22.9054 328.101 24.6665 324.875 24.5122C320.706 24.3216 317.232 20.3091 314.162 20.1457C309.626 19.9006 306.446 16.5872 303.66 16.2059C298.739 15.5342 295.99 19.2561 293.268 17.1954C291.399 15.7793 287.532 10.3779 282.757 10.0239C279.66 9.79695 275.738 9.50646 271.889 9.76064C268.562 9.97851 264.979 13.3373 261.359 13.9455C257.932 14.5174 254.101 13.646 250.61 14.581C247.127 15.516 244.158 21.0263 240.822 22.3426C237.12 23.8041 234.362 31.5657 231.631 31.8743C227.764 32.3101 224.465 24.5031 221.743 23.4592C218.508 22.2246 215.484 21.4893 212.368 19.7009C209.674 18.1577 207.181 12.8834 203.451 12.0846C199.447 11.2222 194.92 7.59103 191.712 8.31726C187.863 9.19781 185.371 18.7659 182.191 20.2728C178.58 21.9795 175.043 25.1113 171.533 25.1113C167.794 25.1113 163.468 16.1696 159.051 16.7324C155.432 17.1954 151.601 27.4534 147.111 26.3278C143.61 25.4472 139.624 22.7511 135.39 19.9369C132.283 17.8853 129.708 14.5084 126.812 12.8925C123.541 11.0679 120.993 6.05687 118.079 5.00383C114.542 3.72385 110.528 -0.215947 107.678 0.0110003C104.049 0.292414 101.877 9.56093 99.7141 13.0287C98.2387 15.398 93.9499 17.9398 88.9371 17.8036C85.8489 17.7219 82.3482 13.8003 78.4443 13.2193C75.1086 12.72 71.5071 12.8834 67.8506 12.2571C64.3866 11.667 61.1242 6.46537 57.596 5.94793C54.0037 5.42141 50.0998 10.7774 46.6633 10.5232C42.9152 10.2418 39.0846 1.59055 35.813 1.87196C31.7992 2.21692 28.83 11.7668 26.0166 13.3736C21.5537 15.9245 17.9064 16.7415 15.478 18.9838C11.1342 23.0053 9.05394 20.4181 5.62658 20.6904C4.22447 20.8084 3 31 -0.000244141 31.0016C-0.000244141 31.5016 -0.000162043 31.4204 -0.000162043 31.4204L0 34H394C394 34 394 31.5 394 31.0016Z" fill="#E6DECA"/>
</svg>

<svg xmlns="http://www.w3.org/2000/svg" fill="none" viewBox="0 0 394 34">
  <path fill="#E6DECA" d="M394 31.002c-5-.002-8.789-15.904-12.445-16.975-3.812-1.116-8.147 3.187-13.215 3.187-7.083 0-8.944-3.868-12.197-1.77-1.915 1.234-3.134 10.793-9.201 11.165-2.923.182-6.616-3.277-11.216-3.504-4.005-.2-7.625 1.561-10.851 1.407-4.169-.19-7.643-4.203-10.713-4.366-4.536-.245-7.716-3.559-10.502-3.94-4.921-.672-7.67 3.05-10.392.99-1.869-1.417-5.736-6.818-10.511-7.172-3.097-.227-7.019-.518-10.868-.263-3.327.218-6.91 3.576-10.53 4.184-3.427.572-7.258-.299-10.749.636-3.483.935-6.452 6.445-9.788 7.762-3.702 1.461-6.46 9.223-9.191 9.531-3.867.436-7.166-7.37-9.888-8.415-3.235-1.234-6.259-1.97-9.375-3.758-2.694-1.543-5.187-6.818-8.917-7.616-4.004-.863-8.531-4.494-11.739-3.768-3.849.88-6.341 10.449-9.521 11.956-3.611 1.707-7.148 4.838-10.658 4.838-3.739 0-8.065-8.941-12.482-8.379-3.619.463-7.45 10.721-11.94 9.596-3.501-.88-7.487-3.577-11.721-6.391-3.107-2.052-5.682-5.429-8.578-7.045-3.271-1.824-5.819-6.835-8.733-7.888-3.537-1.28-7.551-5.22-10.401-4.993-3.629.281-5.801 9.55-7.964 13.018-1.475 2.369-5.764 4.91-10.777 4.775-3.088-.082-6.589-4.004-10.493-4.585-3.335-.499-6.937-.336-10.593-.962-3.464-.59-6.727-5.792-10.255-6.31-3.592-.526-7.496 4.83-10.933 4.576-3.748-.281-7.578-8.932-10.85-8.651-4.014.345-6.983 9.895-9.796 11.502-4.463 2.55-8.11 3.367-10.539 5.61-4.344 4.021-6.424 1.434-9.851 1.706C4.224 20.808 3 31 0 31.002V34h394v-2.998Z"/>
</svg>
